X: 13
T: Lamentationes Jeremie
N: Derived from Tin2003-Lamentationes_Jeremie.krn
C: Johannes Tinctoris
%%abc-version 2.0
%%abcx-abcm2ps-target-version 5.9.1 (29 Sep 2008)
%%abc-creator hum2abc beta
%%abcx-conversion-date 2019/02/17 07:34:55
%%abc-edited-by Jesse Rodin
%%abc-edited-by Chris Gage 01-29-2015
%%abcx-initial-encoding-date 2015/01/30/
%%humdrum-veritas 1856275344
%%humdrum-veritas-data 4039060190
%%linebreak <none>
%%barnumbers 0
L: 1/4
M: 2/1
Q: 1/2=120
%%staves [1 2 3 4]
V: 1 clef=treble
V: 2 clef=treble-8
V: 3 clef=treble-8
V: 4 clef=bass
K: F
[V:1] G8- | 
[V:2] d8- | 
[V:3] G8 | 
[V:4] G,8 | 
[V:1] G8 | 
[V:2] d4d4- | 
[V:3] B6c2 | 
[V:4] G,6F,E, | 
[V:1] ^F6GA | 
[V:2] d2cBA4 | 
[V:3] d8 | 
[V:4] D,8 | 
[V:1] B3cB2AG | 
[V:2] G4d4- | 
[V:3] d6cB | 
[V:4] G,,8 | 
[V:1] ^F8- | 
[V:2] d8 | 
[V:3] A8- | 
[V:4] D,8- | 
[V:1] !fermata!F8 | 
[V:2] !fermata!d8 | 
[V:3] !fermata!A8 | 
[V:4] !fermata!D,8 | 
[V:1] =F6G2 | 
[V:2] d8 | 
[V:3] A6B2 | 
[V:4] D,6C,B,, | 
[V:1] A4z2B2- | 
[V:2] e2f2g4- | 
[V:3] c4d4- | 
[V:4] A,,4G,,4- | 
[V:1] B2A2G4- | 
[V:2] g2fed4 | 
[V:3] d2c2B4 | 
[V:4] G,,2A,,2B,,4 | 
[V:1] G2^FEF4 | 
[V:2] c4A4 | 
[V:3] A8 | 
[V:4] C,4D,4 | 
[V:1] G8- | 
[V:2] B6c2 | 
[V:3] G8- | 
[V:4] G,,8- | 
[V:1] G8 ||  
[V:2] d8 ||  
[V:3] G8 ||  
[V:4] G,,8 ||  
[V:1]  [K:F] [K:clef=treble][M:2/1]G8 | 
[V:2]  [K:F] [K:clef=treble-8][M:2/1]d8- | 
[V:3]  [K:F] [K:clef=treble-8][M:2/1]B8- | 
[V:4]  [K:F] [K:clef=bass][M:2/1]G,8- | 
[V:1] G6F2 | 
[V:2] d8 | 
[V:3] B8 | 
[V:4] G,8 | 
[V:1] E4E4 | 
[V:2] z4A4- | 
[V:3] c8 | 
[V:4] A,8 | 
[V:1] D8- | 
[V:2] A2G2A4 | 
[V:3] d8 | 
[V:4] D,8 | 
[V:1] D8 | 
[V:2] B8 | 
[V:3] z4G4- | 
[V:4] G,4B,4- | 
[V:1] D8 | 
[V:2] G8 | 
[V:3] G2A2B2AG | 
[V:4] B,2A,2G,2F,E, | 
[V:1] D8 | 
[V:2] D3EF4 | 
[V:3] A4D4 | 
[V:4] F,3G,A,4 | 
[V:1] D8 | 
[V:2] G8- | 
[V:3] B6A2 | 
[V:4] G,6A,2 | 
[V:1] D8 | 
[V:2] G4D4 | 
[V:3] G2FEF3G | 
[V:4] B,2A,G,A,4 | 
[V:1] F6ED | 
[V:2] F8 | 
[V:3] A6B2 | 
[V:4] D,8 | 
[V:1] E4F4 | 
[V:2] z8 | 
[V:3] c4d4- | 
[V:4] A,4D,4 | 
[V:1] E8 | 
[V:2] z8 | 
[V:3] d2^c=B^c4 | 
[V:4] A,8 | 
[V:1] D8- | 
[V:2] D4F4- | 
[V:3] d8 | 
[V:4] z4D,4 | 
[V:1] D8 | 
[V:2] F2G2A4 | 
[V:3] D4F4- | 
[V:4] F,6G,2 | 
[V:1] z8 | 
[V:2] D6E2 | 
[V:3] F2G2A4 | 
[V:4] A,4D,4- | 
[V:1] F6G2 | 
[V:2] F2G2A4- | 
[V:3] D6E2 | 
[V:4] D,2E,2F,4- | 
[V:1] A4D4- | 
[V:2] A4G4 | 
[V:3] F2GAB4- | 
[V:4] F,4G,4- | 
[V:1] D2E2F2GA | 
[V:2] d8- | 
[V:3] B2c2d4- | 
[V:4] G,2F,2D,4 | 
[V:1] B2A2G4 | 
[V:2] d8 | 
[V:3] d2c2B4 | 
[V:4] G,8 | 
[V:1] ^F2E2F4 | 
[V:2] d8 | 
[V:3] A8 | 
[V:4] D,8 | 
[V:1] G8- | 
[V:2] d8- | 
[V:3] G8- | 
[V:4] G,,8- | 
[V:1] G8 | 
[V:2] d8 | 
[V:3] G8 | 
[V:4] G,,8 | 
[V:1] z8 | 
[V:2] z8 | 
[V:3] z8 | 
[V:4] z8 | 
[V:1] G8 | 
[V:2] c8 | 
[V:3] G8 | 
[V:4] C,8- | 
[V:1] E8 | 
[V:2] G6A2 | 
[V:3] c8 | 
[V:4] C,8 | 
[V:1] F8- | 
[V:2] B8- | 
[V:3] d8- | 
[V:4] B,,8- | 
[V:1] F4E2D2 | 
[V:2] B8 | 
[V:3] d8 | 
[V:4] B,,8 | 
[V:1] E8 | 
[V:2] G8 | 
[V:3] c6BA | 
[V:4] C,8 | 
[V:1] D8 | 
[V:2] z4G4 | 
[V:3] B8 | 
[V:4] G,8 | 
[V:1] z4C4- | 
[V:2] G8- | 
[V:3] c8 | 
[V:4] C,8- | 
[V:1] C2D2E2DE | 
[V:2] G4G4 | 
[V:3] z4c4 | 
[V:4] C,8 | 
[V:1] F4D4- | 
[V:2] B6c2 | 
[V:3] d4B4- | 
[V:4] B,,8 | 
[V:1] D2C2B,4 | 
[V:2] d8- | 
[V:3] B2A2G4- | 
[V:4] G,,8 | 
[V:1] A,8 | 
[V:2] d8 | 
[V:3] G2^FE^F4 | 
[V:4] D,8 | 
[V:1] G,8 | 
[V:2] z4d4- | 
[V:3] G8- | 
[V:4] G,,8 | 
[V:1] z4D4- | 
[V:2] d2d2d4 | 
[V:3] G8 | 
[V:4] G,,6G,,2 | 
[V:1] D2D2D4 | 
[V:2] B6cd | 
[V:3] z4G4- | 
[V:4] G,,8 | 
[V:1] z4G4- | 
[V:2] e8- | 
[V:3] G2G2G4 | 
[V:4] C,8- | 
[V:1] G2F2E2DC | 
[V:2] e8 | 
[V:3] c8 | 
[V:4] C,8 | 
[V:1] D4E4- | 
[V:2] d4c4- | 
[V:3] B4G4- | 
[V:4] G,,4C,4- | 
[V:1] E2D2C4- | 
[V:2] c2B2G4- | 
[V:3] G2F2E4 | 
[V:4] C,8 | 
[V:1] C2=B,A,=B,4 | 
[V:2] G8 | 
[V:3] D8 | 
[V:4] G,,8 | 
[V:1] C8- | 
[V:2] E6F2 | 
[V:3] C8- | 
[V:4] z4C,4- | 
[V:1] C8 | 
[V:2] G8 | 
[V:3] C8 | 
[V:4] C,2D,2E,4 | 
[V:1] z8 | 
[V:2] A4z2B2 | 
[V:3] z8 | 
[V:4] F,6G,2 | 
[V:1] z8 | 
[V:2] c4d4- | 
[V:3] z8 | 
[V:4] A,4B,4- | 
[V:1] z8 | 
[V:2] d2c2B4 | 
[V:3] z8 | 
[V:4] B,2A,2G,4- | 
[V:1] z8 | 
[V:2] A8 | 
[V:3] z8 | 
[V:4] G,2^F,E,F,4 | 
[V:1] D8 | 
[V:2] G8 | 
[V:3] G8 | 
[V:4] G,8 | 
[V:1] E8- | 
[V:2] z4G4- | 
[V:3] c8- | 
[V:4] C,8- | 
[V:1] E4D2C2 | 
[V:2] G8 | 
[V:3] c4B2A2 | 
[V:4] C,8 | 
[V:1] D8- | 
[V:2] G4B4- | 
[V:3] B8- | 
[V:4] G,8 | 
[V:1] D8 | 
[V:2] B2c2d4 | 
[V:3] B8 | 
[V:4] G,6F,2 | 
[V:1] z4F4- | 
[V:2] G4A4- | 
[V:3] c4d4- | 
[V:4] E,4D,4- | 
[V:1] F2G2A4 | 
[V:2] A8 | 
[V:3] d2e2f4 | 
[V:4] D,8 | 
[V:1] B8 | 
[V:2] G8 | 
[V:3] d8 | 
[V:4] G,6F,E, | 
[V:1] A4G4- | 
[V:2] A4d4- | 
[V:3] c4B4 | 
[V:4] F,4G,4 | 
[V:1] G2^FEF4 | 
[V:2] d2cBc4 | 
[V:3] A8 | 
[V:4] D,8 | 
[V:1] G8- | 
[V:2] B6c2 | 
[V:3] G8- | 
[V:4] G,,8- | 
[V:1] G8 ||  
[V:2] d8 ||  
[V:3] G8 ||  
[V:4] G,,8 ||  
[V:1]  [K:F] [K:clef=treble][M:2/1]G8- | 
[V:2]  [K:F] [K:clef=treble-8][M:2/1]d8 | 
[V:3]  [K:F] [K:clef=treble-8][M:2/1]B8- | 
[V:4]  [K:F] [K:clef=bass][M:2/1]G,8- | 
[V:1] G8 | 
[V:2] d6e2 | 
[V:3] B8 | 
[V:4] G,8 | 
[V:1] A6GF | 
[V:2] f6ed | 
[V:3] A4B4 | 
[V:4] D,8 | 
[V:1] E8- | 
[V:2] e4A4- | 
[V:3] c8- | 
[V:4] A,8- | 
[V:1] E8 | 
[V:2] A2B2c4 | 
[V:3] c8 | 
[V:4] A,8 | 
[V:1] F6ED | 
[V:2] A4B4 | 
[V:3] d8 | 
[V:4] D,4B,,4 | 
[V:1] E4D4- | 
[V:2] G4F4 | 
[V:3] c4B4- | 
[V:4] C,4D,4 | 
[V:1] D2C2B,2A,G, | 
[V:2] D4d4- | 
[V:3] B2A2G4 | 
[V:4] G,,8 | 
[V:1] A,8- | 
[V:2] d8 | 
[V:3] F8- | 
[V:4] D,8- | 
[V:1] A,8 ||  
[V:2] d8 ||  
[V:3] F8 ||  
[V:4] D,8 ||  
[V:1]  [K:F] [K:clef=treble][M:2/1]A8- | 
[V:2]  [K:F] [K:clef=treble-8][M:2/1]A6B2 | 
[V:3]  [K:F] [K:clef=treble-8][M:2/1]F8- | 
[V:4]  [K:F] [K:clef=bass][M:2/1]D,6C,B,, | 
[V:1] A8 | 
[V:2] c8 | 
[V:3] F8 | 
[V:4] A,,8 | 
[V:1] B8 | 
[V:2] z8 | 
[V:3] G8 | 
[V:4] G,,4G,4 | 
[V:1] A4G4- | 
[V:2] c4B4 | 
[V:3] A4B4 | 
[V:4] F,4G,4 | 
[V:1] G2A2G2FE | 
[V:2] G8 | 
[V:3] c8 | 
[V:4] E,8 | 
[V:1] F8- | 
[V:2] A6Bc | 
[V:3] d6cB | 
[V:4] D,8- | 
[V:1] F8 | 
[V:2] d6c2 | 
[V:3] A4d4- | 
[V:4] D,8- | 
[V:1] z4A4- | 
[V:2] d2e2f4 | 
[V:3] d2c2d2e2 | 
[V:4] D,8- | 
[V:1] A2G2A2B2 | 
[V:2] d8 | 
[V:3] f8 | 
[V:4] D,8 | 
[V:1] c4B4- | 
[V:2] g8- | 
[V:3] e4d4- | 
[V:4] C,4G,4- | 
[V:1] B2A2A4- | 
[V:2] g4f4 | 
[V:3] d4c4 | 
[V:4] G,2D,2F,4 | 
[V:1] A2GFG4 | 
[V:2] d6e2 | 
[V:3] B8 | 
[V:4] G,8 | 
[V:1] A8 ||  
[V:2] f8 ||  
[V:3] A8 ||  
[V:4] D,8 ||  
[V:1]  [K:F] [K:clef=treble][M:2/1]D8 | 
[V:2]  [K:F] [K:clef=treble-8][M:2/1]z8 | 
[V:3]  [K:F] [K:clef=treble-8][M:2/1]B8 | 
[V:4]  [K:F] [K:clef=bass][M:2/1]G,8 | 
[V:1] F8 | 
[V:2] z8 | 
[V:3] A4d4- | 
[V:4] F,4D,4 | 
[V:1] E8- | 
[V:2] z8 | 
[V:3] d4^c4 | 
[V:4] A,8- | 
[V:1] E8 | 
[V:2] z8 | 
[V:3] ^c6=B^c | 
[V:4] A,8 | 
[V:1] D8- | 
[V:2] A4d4 | 
[V:3] d8- | 
[V:4] z4D,4- | 
[V:1] D8 | 
[V:2] d6cB | 
[V:3] d2z2d4 | 
[V:4] D,8 | 
[V:1] z4A4- | 
[V:2] A8 | 
[V:3] d6cB | 
[V:4] D,8 | 
[V:1] A4A4 | 
[V:2] z4A4- | 
[V:3] A6B2 | 
[V:4] D,6C,B,, | 
[V:1] A6GF | 
[V:2] A8 | 
[V:3] c8- | 
[V:4] A,,8- | 
[V:1] E8- | 
[V:2] A6GF | 
[V:3] c8- | 
[V:4] A,,8- | 
[V:1] E8 | 
[V:2] E8 | 
[V:3] c8 | 
[V:4] A,,8 | 
[V:1] z4D4- | 
[V:2] D4F4- | 
[V:3] d8- | 
[V:4] B,,8- | 
[V:1] D2E2F4 | 
[V:2] F2G2F2ED | 
[V:3] d8 | 
[V:4] B,,8 | 
[V:1] E2D2G4- | 
[V:2] E3FG4 | 
[V:3] c4B4 | 
[V:4] C,4G,,4 | 
[V:1] G2^FEF4 | 
[V:2] z4A4 | 
[V:3] A8 | 
[V:4] D,8 | 
[V:1] G8- | 
[V:2] B4G4- | 
[V:3] G8 | 
[V:4] G,,4C,4- | 
[V:1] G8- | 
[V:2] G2F2E2D2 | 
[V:3] z8 | 
[V:4] C,2D,2E,2F,2 | 
[V:1] G8 | 
[V:2] C8 | 
[V:3] E6F2 | 
[V:4] G,4C,4- | 
[V:1] z8 | 
[V:2] z8 | 
[V:3] G4G4 | 
[V:4] C,2A,,2B,,4 | 
[V:1] E6F2 | 
[V:2] z8 | 
[V:3] A6GF | 
[V:4] A,,4C,4- | 
[V:1] G4G4 | 
[V:2] z8 | 
[V:3] E8 | 
[V:4] C,2D,2E,4 | 
[V:1] A6GF | 
[V:2] A6B2 | 
[V:3] D8 | 
[V:4] F,4D,4 | 
[V:1] E8 | 
[V:2] c4c4 | 
[V:3] A8 | 
[V:4] A,,8 | 
[V:1] z4D4- | 
[V:2] d8 | 
[V:3] D6EF | 
[V:4] B,,8 | 
[V:1] D2EFG4- | 
[V:2] B6A2 | 
[V:3] G6F2 | 
[V:4] G,,6A,,B,, | 
[V:1] G2F2E2D2 | 
[V:2] G4c4- | 
[V:3] E2D2C4- | 
[V:4] C,6B,,2 | 
[V:1] C4D4- | 
[V:2] c2B2A2G2 | 
[V:3] C4F4 | 
[V:4] A,,4D,4 | 
[V:1] D2^C=B,C4 | 
[V:2] A8 | 
[V:3] E8 | 
[V:4] A,,8 | 
[V:1] D8 ||  
[V:2] A8 ||  
[V:3] D8 ||  
[V:4] A,8 ||  
[V:1]  [K:F] [K:clef=treble][M:2/1]G8- | 
[V:2]  [K:F] [K:clef=treble-8][M:2/1]g8 | 
[V:3]  [K:F] [K:clef=treble-8][M:2/1]z8 | 
[V:4]  [K:F] [K:clef=bass][M:2/1]z8 | 
[V:1] G8 | 
[V:2] g6fe | 
[V:3] z8 | 
[V:4] z8 | 
[V:1] A8 | 
[V:2] f8 | 
[V:3] z8 | 
[V:4] z8 | 
[V:1] B4c4- | 
[V:2] g4e4 | 
[V:3] z8 | 
[V:4] z8 | 
[V:1] c2B2A2G2 | 
[V:2] f6e2 | 
[V:3] z8 | 
[V:4] z8 | 
[V:1] B4A4- | 
[V:2] d6c2 | 
[V:3] z8 | 
[V:4] z8 | 
[V:1] A2G2G4- | 
[V:2] d4B4 | 
[V:3] z8 | 
[V:4] z8 | 
[V:1] G2^FEF4 | 
[V:2] A8 | 
[V:3] z8 | 
[V:4] z8 | 
[V:1] G8- | 
[V:2] G8- | 
[V:3] z8 | 
[V:4] z8 | 
[V:1] G8 | 
[V:2] G8 | 
[V:3] z8 | 
[V:4] z8 | 
[V:1] z8 | 
[V:2] z8 | 
[V:3] z8 | 
[V:4] z8 | 
[V:1] B8 | 
[V:2] g8 | 
[V:3] z8 | 
[V:4] z8 | 
[V:1] B4B4 | 
[V:2] g4g4 | 
[V:3] z8 | 
[V:4] z8 | 
[V:1] A8 | 
[V:2] f8 | 
[V:3] z8 | 
[V:4] z8 | 
[V:1] z4G4- | 
[V:2] g6f2 | 
[V:3] z8 | 
[V:4] z8 | 
[V:1] G2F2E2D2 | 
[V:2] e2d2^c2=B^c | 
[V:3] z8 | 
[V:4] z8 | 
[V:1] F4E2D2- | 
[V:2] d4c2B2- | 
[V:3] z8 | 
[V:4] z8 | 
[V:1] DCB,2A,4 | 
[V:2] BAG4^F2 | 
[V:3] z8 | 
[V:4] z8 | 
[V:1] G,8 | 
[V:2] G4z4 | 
[V:3] z8 | 
[V:4] z8 | 
[V:1] z8 | 
[V:2] G4A2B2- | 
[V:3] z8 | 
[V:4] z8 | 
[V:1] z4G,4 | 
[V:2] B2c2d2e2 | 
[V:3] z8 | 
[V:4] z8 | 
[V:1] A,2B,4C2 | 
[V:2] f4g4 | 
[V:3] z8 | 
[V:4] z8 | 
[V:1] D2E2F4 | 
[V:2] z2c2d2cd | 
[V:3] z8 | 
[V:4] z8 | 
[V:1] G6AB | 
[V:2] e4c4- | 
[V:3] z8 | 
[V:4] z8 | 
[V:1] c4B4- | 
[V:2] c2BAG4- | 
[V:3] z8 | 
[V:4] z8 | 
[V:1] B2A2G2FE | 
[V:2] G2A2B2c2 | 
[V:3] z8 | 
[V:4] z8 | 
[V:1] D4G4- | 
[V:2] d4B4 | 
[V:3] z8 | 
[V:4] z8 | 
[V:1] G2^FEF4 | 
[V:2] A8 | 
[V:3] z8 | 
[V:4] z8 | 
[V:1] G8 ||  
[V:2] G8 ||  
[V:3] z8 ||  
[V:4] z8 ||  
[V:1]  [K:F] [K:clef=treble][M:2/1]G8- | 
[V:2]  [K:F] [K:clef=treble-8][M:2/1]d8 | 
[V:3]  [K:F] [K:clef=treble-8][M:2/1]B8 | 
[V:4]  [K:F] [K:clef=bass][M:2/1]G,8- | 
[V:1] G8 | 
[V:2] d6ef | 
[V:3] B6c2 | 
[V:4] G,8- | 
[V:1] B8- | 
[V:2] g6fe | 
[V:3] d8 | 
[V:4] G,8- | 
[V:1] B8 | 
[V:2] d8- | 
[V:3] B6AG | 
[V:4] G,8 | 
[V:1] A8- | 
[V:2] d8- | 
[V:3] F6G2 | 
[V:4] D,8- | 
[V:1] A4F4 | 
[V:2] d8- | 
[V:3] A8 | 
[V:4] D,8 | 
[V:1] G6FG | 
[V:2] d8 | 
[V:3] B8 | 
[V:4] G,,8 | 
[V:1] A8- | 
[V:2] e4f2d2- | 
[V:3] A8- | 
[V:4] z4D,4- | 
[V:1] A8 | 
[V:2] d2cBA4 | 
[V:3] A8 | 
[V:4] D,2E,2F,4 | 
[V:1] D6E2 | 
[V:2] G8 | 
[V:3] B6c2 | 
[V:4] G,6F,E, | 
[V:1] F4G4- | 
[V:2] z8 | 
[V:3] d4G4- | 
[V:4] D,4E,4 | 
[V:1] G2F2E2D2 | 
[V:2] z8 | 
[V:3] G4A4- | 
[V:4] C,6B,,2 | 
[V:1] C4D4- | 
[V:2] z8 | 
[V:3] A2G2F2D2 | 
[V:4] A,,4B,,4 | 
[V:1] D2^C=B,C4 | 
[V:2] A8- | 
[V:3] E4E4 | 
[V:4] A,,8 | 
[V:1] D8- | 
[V:2] A4F4- | 
[V:3] D8- | 
[V:4] z4D,4- | 
[V:1] D8 | 
[V:2] F2G2A2B2 | 
[V:3] D8 | 
[V:4] D,2E,2F,2G,2 | 
[V:1] z8 | 
[V:2] c4d2f2- | 
[V:3] z8 | 
[V:4] A,4D,4- | 
[V:1] z8 | 
[V:2] f2e2d4 | 
[V:3] z8 | 
[V:4] D,2C,2B,,4 | 
[V:1] z8 | 
[V:2] c4B2d2- | 
[V:3] z8 | 
[V:4] A,,4G,,4- | 
[V:1] z8 | 
[V:2] d2c2d2cB | 
[V:3] z8 | 
[V:4] G,,2A,,2B,,4 | 
[V:1] z8 | 
[V:2] A4A4- | 
[V:3] z8 | 
[V:4] C,4D,4 | 
[V:1] z8 | 
[V:2] A2GFG4 | 
[V:3] z8 | 
[V:4] B,,8 | 
[V:1] A8 | 
[V:2] A6B2 | 
[V:3] c6B2 | 
[V:4] A,,8- | 
[V:1] A4c4 | 
[V:2] c4c4 | 
[V:3] A8 | 
[V:4] A,,8 | 
[V:1] B6AG | 
[V:2] d8- | 
[V:3] G8 | 
[V:4] z8 | 
[V:1] F8 | 
[V:2] d8 | 
[V:3] A8 | 
[V:4] D,8 | 
[V:1] G4A4- | 
[V:2] d4f4- | 
[V:3] B4c4 | 
[V:4] G,4F,4- | 
[V:1] A2G2F4 | 
[V:2] f4f4 | 
[V:3] A6B2 | 
[V:4] F,2E,2D,4 | 
[V:1] E4D4 | 
[V:2] c4G4 | 
[V:3] c4d4- | 
[V:4] A,4B,4 | 
[V:1] E8 | 
[V:2] z8 | 
[V:3] d2^c=B^c4 | 
[V:4] A,8 | 
[V:1] D8- | 
[V:2] A8- | 
[V:3] d8 | 
[V:4] D,8- | 
[V:1] D4C2B,2 | 
[V:2] A4G4 | 
[V:3] z8 | 
[V:4] D,4E,4 | 
[V:1] A,8 | 
[V:2] A6B2 | 
[V:3] D6EF | 
[V:4] F,6E,D, | 
[V:1] z4G,4 | 
[V:2] c4g4 | 
[V:3] G4C4 | 
[V:4] C,4E,4 | 
[V:1] A,6B,2 | 
[V:2] f6ed | 
[V:3] F6EF | 
[V:4] D,8 | 
[V:1] C8- | 
[V:2] e8- | 
[V:3] G4C4- | 
[V:4] C,8- | 
[V:1] C8 | 
[V:2] e8- | 
[V:3] C2D2E2F2 | 
[V:4] C,8- | 
[V:1] z4G4 | 
[V:2] e8 | 
[V:3] G8 | 
[V:4] C,8 | 
[V:1] A6B2 | 
[V:2] c6B2 | 
[V:3] z4c4- | 
[V:4] A,,8- | 
[V:1] c8 | 
[V:2] A4F3E | 
[V:3] c2B2A4 | 
[V:4] A,,8 | 
[V:1] B6AG | 
[V:2] G4d4 | 
[V:3] d4G4 | 
[V:4] G,,8 | 
[V:1] A4G4- | 
[V:2] z2d2B3c | 
[V:3] F4G4 | 
[V:4] D,4_E,4 | 
[V:1] G2^FEF4 | 
[V:2] d8- | 
[V:3] A8 | 
[V:4] D,8 | 
[V:1] G8 ||  
[V:2] d8 ||  
[V:3] G8 ||  
[V:4] G,,8 ||  
[V:1]  [K:F] [K:clef=treble][M:2/1]G8- | 
[V:2]  [K:F] [K:clef=treble-8][M:2/1]d8- | 
[V:3]  [K:F] [K:clef=treble-8][M:2/1]B8- | 
[V:4]  [K:F] [K:clef=bass][M:2/1]G,,8- | 
[V:1] G4F2E2 | 
[V:2] d8- | 
[V:3] B4A2G2 | 
[V:4] G,,8 | 
[V:1] F8- | 
[V:2] d8 | 
[V:3] A8 | 
[V:4] D,8 | 
[V:1] F4G4- | 
[V:2] B4G4- | 
[V:3] G8 | 
[V:4] _E,8 | 
[V:1] G2F2_E2DC | 
[V:2] G8 | 
[V:3] c8- | 
[V:4] C,8- | 
[V:1] _E8 | 
[V:2] G8- | 
[V:3] c8 | 
[V:4] C,8 | 
[V:1] D8 ||  
[V:2] G8 ||  
[V:3] B8 ||  
[V:4] G,,8 ||  
[V:1]  [K:F] [K:clef=treble][M:2/1]D8- | 
[V:2]  [K:F] [K:clef=treble-8][M:2/1]G8- | 
[V:3]  [K:F] [K:clef=treble-8][M:2/1]B8- | 
[V:4]  [K:F] [K:clef=bass][M:2/1]G,,8- | 
[V:1] D8 | 
[V:2] G8 | 
[V:3] B8 | 
[V:4] G,,8 | 
[V:1] E8- | 
[V:2] G8- | 
[V:3] c8- | 
[V:4] C,8- | 
[V:1] E4D2C2 | 
[V:2] G8 | 
[V:3] c4B2A2 | 
[V:4] C,8 | 
[V:1] D8- | 
[V:2] G8- | 
[V:3] B8- | 
[V:4] G,,8- | 
[V:1] D8 | 
[V:2] G8 | 
[V:3] B8 | 
[V:4] G,,8 | 
[V:1] G8 | 
[V:2] B4c4 | 
[V:3] G8- | 
[V:4] G,,4C,4 | 
[V:1] D4G4- | 
[V:2] d8 | 
[V:3] G8- | 
[V:4] B,,4G,,4 | 
[V:1] G2A2G2F_E | 
[V:2] c4B2c2 | 
[V:3] G8 | 
[V:4] C,4_E,4 | 
[V:1] !fermata!F8 | 
[V:2] !fermata!d8 | 
[V:3] !fermata!A8 | 
[V:4] !fermata!D,8 | 
[V:1] G8 | 
[V:2] _e6dc | 
[V:3] z8 | 
[V:4] z8 | 
[V:1] G6E2- | 
[V:2] B2c4g2- | 
[V:3] z8 | 
[V:4] z8 | 
[V:1] EDC2=B,3A, | 
[V:2] gfe2d4 | 
[V:3] z8 | 
[V:4] z8 | 
[V:1] C8 | 
[V:2] z4c4 | 
[V:3] z8 | 
[V:4] z8 | 
[V:1] z4C4 | 
[V:2] e6f2 | 
[V:3] z8 | 
[V:4] z8 | 
[V:1] E6F2 | 
[V:2] g4c4- | 
[V:3] z8 | 
[V:4] z8 | 
[V:1] G2ABc4- | 
[V:2] c4e4 | 
[V:3] z8 | 
[V:4] z8 | 
[V:1] c2=BA=B4 | 
[V:2] d8 | 
[V:3] z8 | 
[V:4] z8 | 
[V:1] c8 | 
[V:2] c8- | 
[V:3] c8- | 
[V:4] C,8- | 
[V:1] z4G4 | 
[V:2] c8 | 
[V:3] c8- | 
[V:4] C,8 | 
[V:1] A6GF | 
[V:2] z8 | 
[V:3] c8 | 
[V:4] F,6E,D, | 
[V:1] E4D4- | 
[V:2] G8 | 
[V:3] c4B4 | 
[V:4] C,4G,4- | 
[V:1] D4G4- | 
[V:2] B4c4 | 
[V:3] G8 | 
[V:4] G,2F,2E,4 | 
[V:1] G2FEF2GA | 
[V:2] d8- | 
[V:3] A6Bc | 
[V:4] D,8 | 
[V:1] B4A4- | 
[V:2] d8 | 
[V:3] d6c2 | 
[V:4] G,,4D,4- | 
[V:1] A2G2G4- | 
[V:2] d8 | 
[V:3] d4B4 | 
[V:4] D,4G,4 | 
[V:1] G2^FEF4 | 
[V:2] d8 | 
[V:3] A8 | 
[V:4] D,8 | 
[V:1] G8 | 
[V:2] (3:2:2c8d4 | 
[V:3] G8 | 
[V:4] (3:2:2E,8F,4 | 
[V:1] z8 | 
[V:2] (3:2:2e8d4 | 
[V:3] z8 | 
[V:4] (3:2:2G,8F,4 | 
[V:1] z8 | 
[V:2] (3:2:4c6=B A=B4 | 
[V:3] z8 | 
[V:4] (3:2:2E,4D,8 | 
[V:1] (3:2:2E8F4 | 
[V:2] c8 | 
[V:3] (3:2:2c8d4 | 
[V:4] C,8 | 
[V:1] (3:2:2G8F4 | 
[V:2] z8 | 
[V:3] (3:2:2e8d4 | 
[V:4] z8 | 
[V:1] (3:2:2E4D8 | 
[V:2] z8 | 
[V:3] (3:2:4c6=B A=B4 | 
[V:4] z8 | 
[V:1] C8 | 
[V:2] z8 | 
[V:3] c8 | 
[V:4] z8 | 
[V:1] z8 | 
[V:2] (3:2:2B8c4 | 
[V:3] z8 | 
[V:4] (3:2:2G,8A,4 | 
[V:1] z8 | 
[V:2] (3:2:2d8c4 | 
[V:3] z8 | 
[V:4] (3:2:2B,8A,4 | 
[V:1] z8 | 
[V:2] (3:2:2B4A8 | 
[V:3] z8 | 
[V:4] (3:2:4G,6^F, E,F,4 | 
[V:1] z8 | 
[V:2] G8 | 
[V:3] z8 | 
[V:4] G,8 | 
[V:1] (3:2:2D8E4- | 
[V:2] z8 | 
[V:3] G8 | 
[V:4] z8 | 
[V:1] (3:2:2E4F8 | 
[V:2] z8 | 
[V:3] A8 | 
[V:4] z8 | 
[V:1] G8 | 
[V:2] (3:2:2d8e4- | 
[V:3] (3:2:2G8c4 | 
[V:4] z8 | 
[V:1] A8 | 
[V:2] (3:2:2e4f8 | 
[V:3] (3:2:2A4d8 | 
[V:4] z8 | 
[V:1] G8 | 
[V:2] (3:2:4g6f2e2d2 | 
[V:3] (3:2:2G8c4- | 
[V:4] z8 | 
[V:1] (3:2:4c6B2A2G2 | 
[V:2] e8 | 
[V:3] (3:2:5c2B2A2G2c4 | 
[V:4] z8 | 
[V:1] (3B4A6G2 | 
[V:2] (3:2:2f8e4 | 
[V:3] (3:2:2d8c4 | 
[V:4] z8 | 
[V:1] (3:2:4G6^F EF4 | 
[V:2] (3:2:4d6c Bc4 | 
[V:3] (3:2:2B4A8 | 
[V:4] z8 | 
[V:1] G8 ||  
[V:2] d8 ||  
[V:3] G8 ||  
[V:4] G,,8 ||  
[V:1]  [K:F] [K:clef=treble][M:2/1]G8- | 
[V:2]  [K:F] [K:clef=treble-8][M:2/1]c6BA | 
[V:3]  [K:F] [K:clef=treble-8][M:2/1]G6AB | 
[V:4]  [K:F] [K:clef=bass][M:2/1]C,8- | 
[V:1] G4F2E2 | 
[V:2] G6A2 | 
[V:3] c8 | 
[V:4] C,8 | 
[V:1] F8- | 
[V:2] B8- | 
[V:3] d8- | 
[V:4] B,,8- | 
[V:1] F8 | 
[V:2] B8 | 
[V:3] d8 | 
[V:4] B,,8 | 
[V:1] E8 | 
[V:2] G8 | 
[V:3] c8- | 
[V:4] C,6D,2 | 
[V:1] z4C4 | 
[V:2] z8 | 
[V:3] c8 | 
[V:4] E,4F,4 | 
[V:1] D8- | 
[V:2] z8 | 
[V:3] z8 | 
[V:4] D,4G,4- | 
[V:1] D4C4 | 
[V:2] z8 | 
[V:3] z8 | 
[V:4] G,4A,4 | 
[V:1] B,4B,4 | 
[V:2] z8 | 
[V:3] z8 | 
[V:4] D,4G,4- | 
[V:1] A,8 | 
[V:2] z8 | 
[V:3] z8 | 
[V:4] G,2^F,E,F,4 | 
[V:1] G,8 | 
[V:2] z8 | 
[V:3] z8 | 
[V:4] G,8 | 
[V:1] z8 | 
[V:2] g6fe | 
[V:3] c8 | 
[V:4] z8 | 
[V:1] z8 | 
[V:2] d3ef4- | 
[V:3] d8- | 
[V:4] z8 | 
[V:1] z8 | 
[V:2] f2ede4 | 
[V:3] d4c4 | 
[V:4] z8 | 
[V:1] z8 | 
[V:2] d4g4- | 
[V:3] B4B4 | 
[V:4] z8 | 
[V:1] z8 | 
[V:2] g2^fe^f4 | 
[V:3] A8 | 
[V:4] z8 | 
[V:1] D8 | 
[V:2] g8- | 
[V:3] G8 | 
[V:4] B,8 | 
[V:1] E8 | 
[V:2] g4f2e2 | 
[V:3] C8 | 
[V:4] C8 | 
[V:1] F8 | 
[V:2] d8- | 
[V:3] D8- | 
[V:4] A,8- | 
[V:1] F6EF | 
[V:2] d8 | 
[V:3] D8 | 
[V:4] A,8 | 
[V:1] G4B4 | 
[V:2] B4G4 | 
[V:3] z4G4 | 
[V:4] G,8 | 
[V:1] A6GF | 
[V:2] A6B2 | 
[V:3] F6EF | 
[V:4] D,8 | 
[V:1] E3DG4- | 
[V:2] c4d4- | 
[V:3] G4B4 | 
[V:4] C,4G,,4 | 
[V:1] G2^FEF4 | 
[V:2] d2cBA4 | 
[V:3] A8 | 
[V:4] D,8 | 
[V:1] G8- | 
[V:2] z8 | 
[V:3] G4B4- | 
[V:4] E,4G,4- | 
[V:1] G4A4- | 
[V:2] z8 | 
[V:3] B4c4 | 
[V:4] G,4F,4- | 
[V:1] A2G2F4 | 
[V:2] z8 | 
[V:3] A4d4- | 
[V:4] F,2E,2D,4 | 
[V:1] E8 | 
[V:2] z8 | 
[V:3] d2^c=B^c4 | 
[V:4] A,8 | 
[V:1] D8- | 
[V:2] d4f4- | 
[V:3] d8 | 
[V:4] z4D,4- | 
[V:1] D8 | 
[V:2] f2e2d2c2 | 
[V:3] z8 | 
[V:4] D,2E,2F,4 | 
[V:1] z8 | 
[V:2] B6cd | 
[V:3] d8 | 
[V:4] G,8 | 
[V:1] z8 | 
[V:2] _e4c4- | 
[V:3] c3BG4- | 
[V:4] C,4E,4 | 
[V:1] z4D4 | 
[V:2] c2=B2=B2A2 | 
[V:3] G2FEF4 | 
[V:4] D,8 | 
[V:1] E6F2 | 
[V:2] c8 | 
[V:3] G6A2 | 
[V:4] C,8 | 
[V:1] G4A4 | 
[V:2] d4c4 | 
[V:3] B4c4 | 
[V:4] B,,4A,,4 | 
[V:1] z4D4- | 
[V:2] B6AG | 
[V:3] d4f4- | 
[V:4] B,,6C,2 | 
[V:1] D2E2F2G2 | 
[V:2] F2G2A4- | 
[V:3] f2e2d4 | 
[V:4] D,6E,2 | 
[V:1] A4B4- | 
[V:2] A4G4 | 
[V:3] c4B4 | 
[V:4] F,4G,4- | 
[V:1] B2G2G4- | 
[V:2] B6c2 | 
[V:3] G8 | 
[V:4] G,2F,2E,4 | 
[V:1] G4^F4 | 
[V:2] d8 | 
[V:3] A8 | 
[V:4] D,8 | 
[V:1] G8 ||  
[V:2] G8 ||  
[V:3] G8 ||  
[V:4] G,,8 ||  
[V:1]  [K:F] [K:clef=treble][M:2/1]D8 | 
[V:2]  [K:F] [K:clef=treble-8][M:2/1]z8 | 
[V:3]  [K:F] [K:clef=treble-8][M:2/1]G8 | 
[V:4]  [K:F] [K:clef=bass][M:2/1]z8 | 
[V:1] D6EF | 
[V:2] z8 | 
[V:3] B6cd | 
[V:4] z8 | 
[V:1] G8 | 
[V:2] z8 | 
[V:3] _e8 | 
[V:4] z8 | 
[V:1] F4D4- | 
[V:2] z8 | 
[V:3] d4B4- | 
[V:4] z8 | 
[V:1] D2C2B,4 | 
[V:2] z8 | 
[V:3] B2A2G4- | 
[V:4] z8 | 
[V:1] A,8 | 
[V:2] z8 | 
[V:3] G2^FE^F4 | 
[V:4] z8 | 
[V:1] G,8 | 
[V:2] z8 | 
[V:3] G8 | 
[V:4] z8 | 
[V:1] z8 | 
[V:2] B8 | 
[V:3] z8 | 
[V:4] G,8 | 
[V:1] z8 | 
[V:2] c6d2 | 
[V:3] z8 | 
[V:4] A,6G,F, | 
[V:1] z8 | 
[V:2] e4f4- | 
[V:3] z8 | 
[V:4] G,4A,4- | 
[V:1] z8 | 
[V:2] f2e2d4- | 
[V:3] z8 | 
[V:4] A,2G,2F,4 | 
[V:1] z8 | 
[V:2] d2^c=B^c4 | 
[V:3] z8 | 
[V:4] E,8 | 
[V:1] z8 | 
[V:2] d8 | 
[V:3] z8 | 
[V:4] D,8 | 
[V:1] z8 | 
[V:2] z8 | 
[V:3] G4B4- | 
[V:4] z8 | 
[V:1] G,4B,4- | 
[V:2] z8 | 
[V:3] B2c2d2e2 | 
[V:4] z8 | 
[V:1] B,2C2D2E2 | 
[V:2] z8 | 
[V:3] f4B4- | 
[V:4] z8 | 
[V:1] F4G4- | 
[V:2] z8 | 
[V:3] B2A2B4 | 
[V:4] z8 | 
[V:1] G2A2G2FE | 
[V:2] z8 | 
[V:3] c8 | 
[V:4] z8 | 
[V:1] F6G2 | 
[V:2] z8 | 
[V:3] d6cB | 
[V:4] z8 | 
[V:1] A4B4- | 
[V:2] z8 | 
[V:3] A4G4 | 
[V:4] z8 | 
[V:1] B2A2G4- | 
[V:2] z8 | 
[V:3] B4c4 | 
[V:4] z8 | 
[V:1] G2^FEF4 | 
[V:2] z8 | 
[V:3] A8 | 
[V:4] z8 | 
[V:1] G8 | 
[V:2] z8 | 
[V:3] G8 | 
[V:4] z8 | 
[V:1] z8 | 
[V:2] d6e2 | 
[V:3] z8 | 
[V:4] G,6F,E, | 
[V:1] z8 | 
[V:2] f4g4- | 
[V:3] z8 | 
[V:4] D,4C,4- | 
[V:1] z8 | 
[V:2] g2f2e2dc | 
[V:3] z8 | 
[V:4] C,2D,2E,2F,2 | 
[V:1] z8 | 
[V:2] (3B6c2d4 | 
[V:3] z8 | 
[V:4] (3:2:2G,8F,4 | 
[V:1] z8 | 
[V:2] (3_e4d6c2 | 
[V:3] z8 | 
[V:4] (3:2:2G,8F,4 | 
[V:1] z8 | 
[V:2] (3:2:4c6=B A=B4 | 
[V:3] z8 | 
[V:4] (3:2:2E,4D,8 | 
[V:1] z8 | 
[V:2] c8 | 
[V:3] z8 | 
[V:4] C,4E,4 | 
[V:1] z8 | 
[V:2] d4B4 | 
[V:3] z8 | 
[V:4] D,4G,4- | 
[V:1] z8 | 
[V:2] A8 | 
[V:3] z8 | 
[V:4] G,2^F,E,F,4 | 
[V:1] z8 | 
[V:2] G8 | 
[V:3] z8 | 
[V:4] G,8 | 
[V:1] G8 | 
[V:2] z8 | 
[V:3] G8 | 
[V:4] z8 | 
[V:1] F6ED | 
[V:2] z8 | 
[V:3] A4B4 | 
[V:4] z8 | 
[V:1] E6D2 | 
[V:2] z8 | 
[V:3] c6B2 | 
[V:4] z8 | 
[V:1] E4F4- | 
[V:2] z8 | 
[V:3] A2G2d4- | 
[V:4] z8 | 
[V:1] F2E2D2CB, | 
[V:2] z8 | 
[V:3] d2c2B2AG | 
[V:4] z8 | 
[V:1] A,4D4- | 
[V:2] z8 | 
[V:3] F4D4 | 
[V:4] z8 | 
[V:1] D2^C=B,C4 | 
[V:2] z8 | 
[V:3] E8 | 
[V:4] z8 | 
[V:1] D8- | 
[V:2] A8 | 
[V:3] D8 | 
[V:4] D,8 | 
[V:1] D8- | 
[V:2] G4d4- | 
[V:3] z4G4 | 
[V:4] G,,8 | 
[V:1] D8 | 
[V:2] d2c2B2AG | 
[V:3] d6cB | 
[V:4] z4G,,4 | 
[V:1] z4G,4 | 
[V:2] F6G2 | 
[V:3] A2GFE4 | 
[V:4] D,4E,4 | 
[V:1] D4E4 | 
[V:2] A2B2G2c2- | 
[V:3] D4C4 | 
[V:4] F,4G,2E,2 | 
[V:1] F4G4- | 
[V:2] c2B2c3d | 
[V:3] D4E4- | 
[V:4] D,4C,4 | 
[V:1] G2A2F4 | 
[V:2] e2f2d4- | 
[V:3] E2D2F4 | 
[V:4] z8 | 
[V:1] E8 | 
[V:2] d2^c=B^c4 | 
[V:3] G4A4 | 
[V:4] z4A,,4 | 
[V:1] D4F4- | 
[V:2] d8 | 
[V:3] F4D4- | 
[V:4] B,,6D,2- | 
[V:1] F2G2A4 | 
[V:2] z4c4 | 
[V:3] D2E2F4 | 
[V:4] D,2C,2A,,4 | 
[V:1] B8 | 
[V:2] B2d4e2 | 
[V:3] G8 | 
[V:4] G,,4G,4 | 
[V:1] A4G4- | 
[V:2] f4d4- | 
[V:3] A4B4- | 
[V:4] F,4G,4- | 
[V:1] G2A2G2^FE | 
[V:2] d8 | 
[V:3] B2c2B2AG | 
[V:4] G,2F,2G,2A,2 | 
[V:1] !fermata!^F8 | 
[V:2] !fermata!d8 | 
[V:3] !fermata!A8 | 
[V:4] !fermata!D,8 | 
[V:1] G8 |]  
[V:2] d8 |]  
[V:3] G8 |]  
[V:4] G,,8 |]  



